resources/svg/solid/credit-card-front.svg

<svg xmlns="http://www.w3.org/2000/svg" fill="currentColor" stroke="none" viewBox="0 0 24 24"><path d="M20,4H4C2.897,4,2,4.897,2,6v12c0,1.103,0.897,2,2,2h16c1.103,0,2-0.897,2-2V6C22,4.897,21.103,4,20,4z M5,8.5 C5,8.224,5.224,8,5.5,8h3C8.776,8,9,8.224,9,8.5v2C9,10.776,8.776,11,8.5,11h-3C5.224,11,5,10.776,5,10.5V8.5z M11,16H5v-2h6V16z M19,16h-6v-2h6V16z"/></svg>

<svg xmlns="http://www.w3.org/2000/svg" fill="currentColor" stroke="none" viewBox="0 0 24 24"><path d="M20 4H4c-1.103 0-2 .897-2 2v12c0 1.103.897 2 2 2h16c1.103 0 2-.897 2-2V6c0-1.103-.897-2-2-2zM5 8.5a.5.5 0 0 1 .5-.5h3a.5.5 0 0 1 .5.5v2a.5.5 0 0 1-.5.5h-3a.5.5 0 0 1-.5-.5v-2zm6 7.5H5v-2h6v2zm8 0h-6v-2h6v2z"/></svg>
